X:11027
T:Mistress Creasey
R:Jig
O:England
M:6/8
N:also in ms. as Mrs. Carey. Played as a slide in Kerry (Ta Mo Mhadra or something like that)(BStocks)
A:Lancashire
B:Winder
K:D
d2B BcB | A2A ABA | B2B BcB | g3 f2e | \
d2B BcB | A2A ABA | B2B BcB | d3 f2e :|*
|:d2e f2g | a2b a2f | d2e f2g | a3 aga | \
b2g a2f | g2e a2f | d2B BcB | g3 f2e :|**
